img/icon/level-A.svg

<svg width="30" height="30" viewBox="0 0 30 30" fill="none" xmlns="http://www.w3.org/2000/svg">
<rect width="30" height="30" rx="4" fill="url(#paint0_linear)"/>
<path d="M8 21L11.9386 9H18.0793L22 21H16.9156L16.4859 19.4056H12.8696L12.4399 21H8ZM14.6957 12.5916L13.6573 16.4182H15.6982L14.6957 12.5916Z" fill="white"/>
<defs>
<linearGradient id="paint0_linear" x1="0" y1="0" x2="0" y2="30" gradientUnits="userSpaceOnUse">
<stop stop-color="#5986FB"/>
<stop offset="1" stop-color="#2D4EF5"/>
</linearGradient>
</defs>
</svg>

<svg width="30" height="30" fill="none" xmlns="http://www.w3.org/2000/svg"><rect width="30" height="30" rx="4" fill="url(#paint0_linear)"/><path d="M8 21l3.939-12h6.14L22 21h-5.084l-.43-1.594H12.87L12.44 21H8zm6.696-8.408l-1.039 3.826h2.041l-1.002-3.826z" fill="#fff"/><defs><linearGradient id="paint0_linear" x2="0" y2="30" gradientUnits="userSpaceOnUse"><stop stop-color="#5986FB"/><stop offset="1" stop-color="#2D4EF5"/></linearGradient></defs></svg>
